X:1
T: Come to Dinner
C:
R:Jig
Q:180
K:Am
M:6/8
L:1/16
e2|c2A2A2 A4A2|E2A2B2 c2B2A2|B2G2G2 G4G2|B2G2B2 g2d2B2|c2A2A2 A4B2|c2d2e2 a2g2^f2|g2e2c2 B2e2d2|c2A2A2 A4e2|
c2A2A2 A4A2|E2A2B2 c2B2A2|B2G2G2 G4G2|B2G2B2 g2d2B2|c2A2A2 A4B2|c2d2e2 a2g2^f2|g2e2c2 B2e2d2|c2A2A2 A4e2|
K:A
a2g2a2 b2a2g2|a2e2c2 A2c2e2|d2B2G2 E2G2B2|A2c2f2 e2f2g2|a2g2a2 b2a2g2|a2e2c2 A2c2e2|d2B2G2 E2G2B2|c2A2A2 A4e2|
a2g2a2 b2a2g2|a2e2c2 A2c2e2|d2B2G2 E2G2B2|A2c2f2 e2f2g2|a2g2a2 b2a2g2|a2e2c2 A2c2e2|d2B2G2 E2G2B2|c2A2A2 A4||
